X: 100457
T: EXERCISE -- "LODER."
C: Arranged by W.B. Laybourn
B: K\"ohler's Violin Repository, v.3, 1885 p.287 #1
F: http://www.archive.org/details/klersviolinrepos03rugg
Z: 2012 John Chambers <jc:trillian.mit.edu>
P: Violin Secundo
Q: "Andante"
M: 3/4
L: 1/8
K: G
|:\
vG,(GBG) | (cB) (AG) | D3 D | ([EC]F) ([FA,]G)  |\
(B,D) (GB) | [B2G2] [cG-][BG] | (Bc/B/) AG | (D>^C D/=C/B,/A,/) |
G,(GBG) | (cB) (AG) | D3 D | ([EC]F) ([FA,]G) |\
(B,D) (GB) | (BG) [c2G2] | D3 ^F | GDG,z :|
|: vD3 D | (GD) D2 | (GA/B/) (AG) | (DC) (B,G,) |\
(B,D) (GB) | (BG) (cG) | (Bc/B/) AG | (D>^C D/=C/B,/A,/) |
G,(GBG) | (cB) (AG) | D3 D | ([EC]F) ([FA,]G) |\
(B,D) (GB) | [B2G2] [c2G2] | d2 (D^F) | GDG,z :|

%%sep 2 1 500

